assets/svg/icon_categories_foryou.svg

<svg width="24" height="24" viewBox="0 0 24 24" fill="none" xmlns="http://www.w3.org/2000/svg">
<path fill-rule="evenodd" clip-rule="evenodd" d="M6.72084 6.41859C6.72084 3.97827 8.69911 2 11.1394 2C13.5798 2 15.558 3.97827 15.558 6.41859C15.558 8.8589 13.5798 10.8372 11.1394 10.8372C8.69911 10.8372 6.72084 8.8589 6.72084 6.41859ZM11.1394 3.39534C9.46974 3.39534 8.11618 4.74889 8.11618 6.41859C8.11618 8.08828 9.46974 9.44183 11.1394 9.44183C12.8092 9.44183 14.1626 8.08828 14.1626 6.41859C14.1626 4.74889 12.8092 3.39534 11.1394 3.39534Z" fill="#727689"/>
<path fill-rule="evenodd" clip-rule="evenodd" d="M5.53541 13.5485C7.00469 12.722 8.98749 12.2328 11.1396 12.2328C13.2918 12.2328 15.2746 12.722 16.7439 13.5485C18.1913 14.3627 19.2791 15.5966 19.2791 17.1165L19.2792 17.2114C19.2802 18.2922 19.2815 19.6486 18.0918 20.6175C17.5063 21.0943 16.6871 21.4334 15.5803 21.6574C14.4706 21.882 13.0241 22.0002 11.1396 22.0002C9.25519 22.0002 7.80872 21.882 6.6989 21.6574C5.59218 21.4334 4.77303 21.0943 4.18748 20.6175C2.99769 19.6486 2.99901 18.2922 3.00006 17.2114L3.00012 17.1165C3.00012 15.5966 4.08801 14.3627 5.53541 13.5485ZM6.2195 14.7646C4.97349 15.4655 4.39546 16.3246 4.39546 17.1165C4.39546 18.3331 4.43297 19.0179 5.06857 19.5355C5.41324 19.8162 5.98944 20.0902 6.97573 20.2898C7.95893 20.4888 9.30315 20.6049 11.1396 20.6049C12.9761 20.6049 14.3203 20.4888 15.3035 20.2898C16.2898 20.0902 16.866 19.8162 17.2106 19.5355C17.8463 19.0179 17.8838 18.3331 17.8838 17.1165C17.8838 16.3246 17.3058 15.4655 16.0598 14.7646C14.8356 14.0761 13.0975 13.6282 11.1396 13.6282C9.18175 13.6282 7.44364 14.0761 6.2195 14.7646Z" fill="#727689"/>
<path fill-rule="evenodd" clip-rule="evenodd" d="M17.3631 7.76506C18.0334 7.4684 18.812 7.52463 19.5116 7.98083C20.2114 7.52463 20.9899 7.4684 21.6603 7.76506C22.4556 8.11705 23 8.93004 23 9.86067C23 10.7429 22.6147 11.407 22.153 11.9103C21.7927 12.3031 21.3469 12.6349 20.9949 12.8968C20.9193 12.9531 20.848 13.0062 20.7828 13.056L20.7809 13.0574C20.6426 13.163 20.4637 13.2995 20.2752 13.4061C20.0854 13.5135 19.8227 13.6284 19.5116 13.6284C19.2007 13.6284 18.938 13.5135 18.7482 13.4061C18.5596 13.2995 18.3807 13.163 18.2423 13.0574L18.2405 13.056C18.1754 13.0062 18.1041 12.9532 18.0286 12.897C17.6766 12.635 17.2307 12.3031 16.8704 11.9103C16.4087 11.407 16.0233 10.7429 16.0233 9.86067C16.0233 8.93004 16.5677 8.11705 17.3631 7.76506ZM17.4186 9.86067C17.4186 9.47744 17.6418 9.16762 17.9277 9.04104C18.1755 8.93144 18.5697 8.92022 19.0169 9.37006C19.1478 9.50178 19.326 9.57585 19.5116 9.57585C19.6974 9.57585 19.8755 9.50178 20.0064 9.37006C20.4537 8.92022 20.8479 8.93144 21.0956 9.04104C21.3816 9.16762 21.6047 9.47744 21.6047 9.86067C21.6047 10.2924 21.4291 10.6352 21.1248 10.9671C20.8624 11.2531 20.5495 11.487 20.2035 11.7455C20.1165 11.8106 20.0273 11.8773 19.9363 11.9468C19.7851 12.0621 19.6804 12.1395 19.5881 12.1917C19.5508 12.2128 19.526 12.2236 19.5116 12.2289C19.4974 12.2236 19.4726 12.2128 19.4353 12.1917C19.343 12.1395 19.2382 12.0621 19.0871 11.9468C18.9961 11.8773 18.9069 11.8107 18.8198 11.7456C18.4739 11.487 18.161 11.2531 17.8986 10.9671C17.5942 10.6352 17.4186 10.2924 17.4186 9.86067Z" fill="#727689"/>
</svg>

<svg xmlns="http://www.w3.org/2000/svg" width="24" height="24" fill="none"><path fill="#727689" fill-rule="evenodd" d="M6.72 6.419a4.419 4.419 0 1 1 8.838 0 4.419 4.419 0 0 1-8.837 0m4.42-3.024a3.023 3.023 0 1 0 0 6.047 3.023 3.023 0 0 0 0-6.047M5.535 13.549c1.47-.827 3.452-1.316 5.605-1.316 2.152 0 4.135.489 5.604 1.316 1.447.814 2.535 2.048 2.535 3.567v.095c.001 1.081.003 2.438-1.187 3.407-.586.476-1.405.815-2.512 1.04-1.11.224-2.556.342-4.44.342s-3.331-.118-4.441-.343c-1.107-.224-1.926-.563-2.512-1.04C2.997 19.65 3 18.293 3 17.212v-.095c0-1.52 1.088-2.753 2.535-3.567m.684 1.216c-1.246.7-1.824 1.56-1.824 2.351 0 1.217.038 1.902.674 2.42.344.28.92.554 1.907.754.983.199 2.327.315 4.164.315s3.18-.116 4.163-.315c.987-.2 1.563-.474 1.908-.755.635-.517.673-1.202.673-2.419 0-.791-.578-1.65-1.824-2.351-1.224-.689-2.962-1.137-4.92-1.137s-3.696.448-4.92 1.137M17.363 7.765c.67-.297 1.449-.24 2.149.216.7-.456 1.478-.513 2.148-.216A2.28 2.28 0 0 1 23 9.861c0 .882-.385 1.546-.847 2.05-.36.392-.806.724-1.158.986l-.212.159-.002.001a5 5 0 0 1-.506.35c-.19.107-.452.221-.763.221s-.574-.114-.764-.222a5 5 0 0 1-.506-.349l-.002-.001-.211-.159c-.352-.262-.798-.594-1.159-.987-.461-.503-.847-1.167-.847-2.05 0-.93.545-1.743 1.34-2.095m.056 2.096a.89.89 0 0 1 .509-.82c.247-.11.642-.12 1.089.33a.7.7 0 0 0 .99 0c.447-.45.84-.44 1.089-.33a.89.89 0 0 1 .509.82c0 .431-.176.774-.48 1.106-.263.286-.576.52-.922.778l-.267.202a3 3 0 0 1-.348.245 1 1 0 0 1-.076.037 1 1 0 0 1-.077-.037 3 3 0 0 1-.348-.245q-.136-.104-.267-.201c-.346-.259-.659-.493-.921-.779-.305-.332-.48-.675-.48-1.106" clip-rule="evenodd"/></svg>
